X:1
T:Shining Boy And Little Randy
T:Shining Boy And Little Randy
T:Music by Ryuichi Sakamoto Arranged by Shiori Aoyama
C:Ryuichi Sakamoto
%%score { ( 1 3 ) | ( 2 4 ) }
L:1/8
Q:1/4=62
M:4/4
K:D
V:1 treble nm="Piano" snm="Pno."
V:3 treble 
V:2 bass 
V:4 bass 
V:1
"^Con sentimento" [Aa]f | [Be-]4 [Bce]2 fa | [Ac]4 Ad[Aa]f | [Be-]4 [GBce]3 f/a/ | %4
 [eac']4 [df]b[Aa]f | [Be]4- [Be]3 f/a/ | [Ad]3 c cBag | [Gf]g B2- Bedc | [^GB]4- [GB]GBe | %9
 [F^Ac]6 [A,D=A]F | [B,E-]4 [A,CE]2 FA | [A,C]4 A,D[A,DA]F | [B,E-]4 [B,CE]2 FA | [EAc]4 DB[=CA]F | %14
 [B,E]2 F,B, [B,C]2 FA | [A,D]3 C [F,C]B,AG | [B,DF] G B,2- B,CDE | [B,DF]G [B,DE]2 [B,DE]GBd | %18
 f4 z E ED | [F,CF]2 C4 AF | [B,E]8!8va(! | e'2!8va)! [CF]4 AF | [B,E]8 | %23
 [^df]2 [df]>[ce] [df] [e^g]2 c | [Ace]2 [Ace]2 [Ace]4 | [^df]2 [df]>[ce] [df] [e^g]2 [gb] | %26
 [Ace^g]2 [Aceg]2 [Aceg]2 [Aceg]2 | [Bdfa]2 [fa]>[eg] [fa] [gb]2 e | [B=ceg]4 [ceg]2 [ceg]2 | %29
 [Bdfa]2 [fa]>[eg] [fa] [gb]2 [bd'] | [Bfb]2 Bf b=fBf | beBe [eb]A[ea]A | [^GBf]6 E2 | %33
 [^A,C]2 [A,CF]2 [CF^A]2 [FAc]2 | [A,E]3 D [B,F]4 | [CA]3 F D2 B,2 | [G,B,F]3 E [B,A]4 | %37
 [DF]2 d2 [Ag]2 f2 | [Ae]3 d f4 | [_Be]2 f2 [=cd-]2 [Bd]2 | [Ae]3 d f4 | [^Gd]2 e2 [=GB]4 | %42
 [Ae]3 d f4 | [Be]2 f2 [Fd-]2 [Ed]2 | [FBf]3 e [Bdg]4 | [dgb]4 [gd']4 |!8va(! [e'g'd'']8-!8va)! | %47
 [egd']8 | [B,E]4 [B,C]3 F/A/ | [A,C]4 z D [B,DA]2 | [B,DFB]3 A/F/ [FB]3 B | c2- (3cde df[Ada]g | %52
 [Bdf]2- [Bdf]/dB/ [cf]2- [cf]/fc/ | A3 a B2- (3Bag | f2- f/G/F/D/ B,3 B, | %55
 [B,E]4 [^A,CF]2 !arpeggio![Acda]>f | [Be]4 [Bc]2 f>a | [Ac]4 Ad!arpeggio![Ada]f | %58
 [Be]4 [Bc]2 [cf]a | [eac']4 fb[=cea]f | [Be]4 [Bc]2 [cf]a | [Ad]3 c PcB[fa][eg] | %62
 [Gdf]g [GB]2- [GB]cef | [Bdf]g [Bde]6 | [df]4- [df]eed | [Fcf]2 [CF]4 af | %66
 [Be]2!8va(! b'2 a'2 f'2 | e'6!8va)! [ca]f | [Be]2!8va(! b'2 a'2 f'2!8va)! | %69
!8va(! e'2!8va)! [CF]4 [ca]f | [Be]2!8va(! [b'e'']2 [a'd'']2 [f'b']2 | [e'a']2!8va)! [CF]4 af | %72
 [Be]2!8va(! [b'e'']2 [a'd'']2 [f'b']2!8va)! | !arpeggio![fac'e']4 [egbd']4 | %74
 [ce^gb]4 [Bdfa]3 F/E/ | [B,F]3 B, EABe | fbe'f'!8va(! !fermata!b'4!8va)! |] %77
V:2
 [F,CD]2 | [G,DF]4 A,4 | [B,EF]4 [B,DF]2 [F,CD]2 | [G,DF]4 [A,E]4 | [B,F]4 [B,F]2 [F,CD]2 | %5
 [G,DF]4 [G,CE]4 | [F,DE]4 [F,G,B,D]4 | [E,G,B,D]8 | F,C E6 | [F,C]6 [F,,D,]2 | [G,,D,]4 [A,,E,]4 | %11
 [B,,E,]4 [B,,F,]2 [F,,D,]2 | [G,,D,]4 [A,,E,]4 | [B,,F,]6 !arpeggio![D,,A,,F,]2 | %14
 ^G,, E,3 [=G,,E,]4 | F,,D, E,2 [G,,D,]4 | E,,B,, [D,G,]2 [D,G,]4 | A,,E, G,6 | G,8 | %19
 D,,A,, F,2 F, A,,3 | =C,,G,, E,6 | D,,A,, F,2- F,D,,A,,F, | =C,,G,, E,6 | %23
[K:treble] [CE^GB] [CEGB]2 [CEGB] [CEGB] [CEGB]2 [CEGB] | ^G2 F>C G F2 F | %25
 [CE^GB] [CEGB]2 [CEGB] [CEGB] [CEGB]2 [CEGB] | ^G2 F>C G F2 F | E [GB]2 [GBd] E [GBd]2 [EGBd] | %28
 A,E A>E B A3 | E [GB]2 [GBd] E [GBd]2 [EGBd] |[K:bass] ^G,,^D,F,B, =G,,=D,=F,F, | %31
 =C,,G,,E,G,, =F,,=C,A,C, | F,,C,E,E, ^G,E,[G,B,]E, | F,, C,2 F,- F,4 | [F,,D,]4 [G,,D,]4 | %35
 [A,,F,]4 [G,,F,]4 | [E,,D,]4 [G,,F,]4 | [B,,G,]4 [C,A,]4 | [DF]2 C2 B,2 A,2 | [G,D]8 | [F,D]8 | %41
 [E,D]4 [A,-D]2 [A,C]2 | [CDF]2 B,2 _B,2 A,2 | [^G,D]8 | [G,D]4 [F,D]4 | [E,B,]8 | %46
 !arpeggio![C,,G,,E,]2 E,2 E2 C2 | E,2 G,2 E2 C2 | [G,,D,]D, B,2 [A,,G,]4 | %49
 B,,2 F,2 [B,,F,]2 !arpeggio![F,,D,E,]2 | G,,4 A,,E, G,2 | B,,F, [A,E]2 A,2 [F,,D,]2 | %52
 G,,D, B,2 G,,E, B,2 | F,,D, A,2 G,,D, B,2 | E,,B,, G,2 E,,B,, G,2 | F,,C,E,^G, [F,,C,]2 [F,,D,]2 | %56
 G,,D,F,B, A,,E,A,C | B,,F,A,C D2 !arpeggio![F,,D,]2 | G,,D,F,B, A,,E,A,C | %59
 B,,F,A,E D2 !arpeggio![D,,A,,F,]2 | ^G,,E,F,B, =G,,E,A,C | F,,D,E,A, G,,D,E,B, | %62
 E,,B,,D,G, B,D[K:treble]GB |[K:bass] A,,E,G,B,[K:treble] DFGB | z8 | %65
[K:bass] D,,A,, F,2 D,,A,, F,2 | =C,,G,, E,2 C,,G,, E,2 | D,,A,, F,2 D,,A,, F,2 | %68
 =C,,G,, E,2 C,,F,, E,2 | D,,A,, F,2 D,,A,, F,2 | =C,,G,, E,2 C,,G,, E,2 | D,,A,, F,2 D,,A,, F,2 | %72
 =C,,G,, E,2 C,,G,, E,2 | !arpeggio![B,FA]4 [A,EG]4 | [F,CE]4 [E,B,D]4 | =C,,8- | %76
"_rit." !None!C,,4- !fermata!C,,4 |] %77
V:3
 x2 | x8 | x8 | x8 | x8 | x8 | x8 | x8 | x8 | x8 | x8 | x8 | x8 | x8 | x8 | x8 | x8 | x8 | x8 | %19
 x8 | z2!8va(! b'2 a'2 f'2 | x2!8va)! x6 | z2!8va(! b'2 a'2 f'2!8va)! | x8 | x8 | x8 | x8 | x8 | %28
 x8 | x8 | x8 | x8 | x8 | x8 | x8 | x8 | x8 | x8 | x8 | x8 | x8 | x8 | x8 | x8 | x8 | x8 | %46
!8va(! x8!8va)! | x8 | x8 | x8 | x8 | x8 | x8 | x8 | x8 | x8 | x8 | x8 | x8 | x8 | x8 | x8 | x8 | %63
 x8 | x8 | x8 | x2!8va(! x6 | x6!8va)! x2 | x2!8va(! x6!8va)! |!8va(! x2!8va)! x6 | x2!8va(! x6 | %71
 x2!8va)! x6 | x2!8va(! x6!8va)! | x8 | x8 | x8 | x4!8va(! x4!8va)! |] %77
V:4
 x2 | x8 | x8 | x8 | x8 | x8 | x8 | x8 | x8 | x8 | x8 | x8 | x8 | x8 | x8 | x8 | x8 | x8 | x8 | %19
 x8 | x8 | x8 | x8 |[K:treble] x8 | x8 | x8 | x8 | x8 | x8 | x8 |[K:bass] x8 | x8 | x8 | x8 | x8 | %35
 x8 | x8 | x8 | x8 | x8 | x8 | x8 | x8 | x8 | x8 | x8 | x8 | x8 | x8 | x8 | x8 | x8 | x8 | x8 | %54
 x8 | x8 | x8 | x8 | x8 | x8 | x8 | x8 | x6[K:treble] x2 |[K:bass] x4[K:treble] x4 | x8 | %65
[K:bass] x8 | x8 | x8 | x8 | x8 | x8 | x8 | x8 | x8 | x8 | z G,, E,6- | E,4- !fermata!E,4 |] %77

